!!!COM: Music21
!!!OTL: O Rodicio
!!!OMV: pezas_pasacorredoiras_o-rodicio_o-rodicio-partitura.musicxml
**kern
*I"Bagpipes
*I'Bag
*clefG^2
*k[]
*M6/8
=1
!LO:TX:a:t=Allegretto
*MM120
!LO:TX:a:t=[quarter]=120
8gg
4r
8gg
4r
=||
8gg
4r
8ggL
8aa
8ggJ
=||
4ee
8ff
4gg
8aa
=
4ffT
8dd
8ffL
8gg
8ffJ
=
4dd
8ee
4ff
8aa
=
8ggL
8ff
8eeJ
8ggL
8aa
8ggJ
=
4ee
8ff
4gg
8aa
=
4ffT
8dd
8ffL
8gg
8ffJ
!!linebreak:original
=
8ddL
8ee
8ffJ
4gg
8ff
=
4.ee
8ggL
8aa
8ggJ
=
8eeL
8cc
8eeJ
8ggL
8ee
8aaJ
=
8ffL
8ee
8ddJ
8ffL
8gg
8ffJ
=
8ddL
8b
8ddJ
8ffL
8dd
8aaJ
=
8ggL
8ff
8eeJ
8ggL
8aa
8ggJ
=
8eeL
8cc
8eeJ
8ggL
8ee
8aaJ
=
8ffL
8ee
8ddJ
8ffL
8gg
8ffJ
!!linebreak:original
=
8ddL
8ee
8ffJ
8ggL
8ff
8ddJ
=
4cc
8r
4.gg
=||
4.ccc
4.bb
=
8ccc
4r
8ggL
8aa
8ggJ
=
8gg^L
8ff
8eeJ
8ddL
8ee
8ffJ
=
8ggL
8ff
8eeJ
8ggL
8aa
8bbJ
=
8cccL
8ddd
8cccJ
8bbL
8aa
8bbJ
=
8ccc
4r
8ggL
8aa
8ggJ
!!linebreak:original
=
8ggL
8ff
8eeJ
8ddL
8ee
8ffJ
=
4ee
8r
4.gg
=||
4.ccc
4.bb
=
8ccc
4r
8ggL
8aa
8ggJ
=
8gg^L
8ff
8eeJ
8ddL
8ee
8ffJ
=
8ggL
8ff
8eeJ
8ggL
8aa
8bbJ
=
8cccL
8ddd
8cccJ
8bbL
8aa
8bbJ
=
8ccc
4r
8ggL
8aa
8ggJ
!!linebreak:original
=
8ggL
8ff
8eeJ
8ffL
8ee
8ddJ
=
4cc
8r
8ggL
8aa
8ggJ
=||
4ee
8ff
4gg
8aa
=
4ffT
8dd
8ffL
8gg
8ffJ
=
4dd
8ee
4ff
8aa
=
8ggL
8ff
8eeJ
8ggL
8aa
8ggJ
!!linebreak:original
=
4ee
8ff
4gg
8aa
=
4ffT
8dd
8ffL
8gg
8ffJ
=
8ddL
8ee
8ffJ
8ggL
8ff
8ddJ
=
4cc
8r
4.cc
=||
*M2/4
2dd
=
2ee
=
2ff
=
16ggLL
16aaJ
[8ggJ
8ggL]
16aaL
16bbJJ
=
8cccL
16bbL
16cccJJ
16aaLL
16bb
16ccc
16aaJJ
!!linebreak:original
=
16bbLL
16ccc
16aa
16bbJJ
8ggL
16ffL
16ggJJ
=
8aaL
16ggL
16aaJJ
16ffLL
16gg
16aa
16ffJJ
=
4.gg
16ffLL
16ggJJ
=
8aaL
16ggL
16aaJJ
16ffLL
16gg
16aa
16ffJJ
=
16ggLL
16aa
16ff
16ggJJ
8eeL
16ddL
16eeJJ
=
8ffL
16eeL
16ffJJ
16ddLL
16ee
16ff
16ddJJ
=
4ee
4cc
=
2dd
=
2ee
!!linebreak:original
=
2ff
!!linebreak:original
=
16ggLL
16aaJ
[8ggJ
8ggL]
16cccL
16bbJJ
=
8ggL
16eeL
16ffJJ
16ggLL
16aa
16bb-X
16ggJJ
=
16aaLL
16bb-X
16aa
16ggJJ
16ffLL
16gg
16aa
16ffJJ
=
8ee
8r
8dd
8r
=||
8cc
8r
8cccL
8bbJ
=
4gg
8aaL
8bbJ
=
8ggL
8cccJ
8cccL
8bbJ
=
8ggL
8bbJ
8aaL
16bbL
16aaJJ
!!linebreak:original
=
[2gg
=
4gg]
8eeL
8ggJ
=
8.ggL
16ggJk
8ggL
8aaJ
=
8.ggL
16ffJk
8ddL
8ffJ
=
8.ffL
16eeJk
8ddL
8ffJ
=
4ee
8eeL
8ggJ
=
8.ggL
16ggJk
8ggL
8aaJ
=
16ggLL
16aa
16gg
16ffJJ
16ddLL
16ee
16ff
16ggJJ
=
16ffLL
16gg
16ff
16eeJJ
16ddLL
16ee
16ff
16ggJJ
=
[2ee
!!linebreak:original
=
4ee]
8cccL
8bbJ
=
4gg
8aaL
8bbJ
=
8ggL
8cccJ
8cccL
8bbJ
=
8ggL
8bbJ
8aaL
8cccJ
=
[2bb
=
4bb]
8bbL
8bbJ
=
8.bbL
16aaJk
8aaL
8aaJ
=
8.aaL
16ggJk
8ggL
8ggJ
=
8.ggL
16aaJk
8ggL
8ffJ
=
4ee
4ee
=
4aa
4aa
=
2gg
!!linebreak:original
=
4aa
8ggL
8ffJ
!!pagebreak:original
=
4ee
4ee
=
4aa
4aa
=
4gg
8aaL
8bbJ
=
4ccc
8bbL
8aaJ
=
4bb
8aaL
8ggJ
=
4aa
8ggL
8ffJ
=
4ee
[4ee
=
8eeL]
16ddL
16eeJJ
16ggLL
16ff
16ee
16ddJJ
=||
8cc
4r
24ggLL
24aa
24bbJJ
=
8ccc
24ggLL
24aa
24bbJJ
8ccc
24ggLL
24aa
24bbJJ
!!linebreak:original
=
8ccc
8r
4r
==
*-
